icons/ontology/UNI-ONT.svg

<svg height="32" viewBox="0 0 32 32" width="32" xmlns="http://www.w3.org/2000/svg" xmlns:xlink="http://www.w3.org/1999/xlink"><linearGradient id="a" x1="17.30611%" x2="89.857211%" y1="13.596534%" y2="79.429964%"><stop offset="0" stop-color="#fff"/><stop offset="1" stop-color="#fec7e0"/></linearGradient><g fill="none" fill-rule="evenodd"><circle cx="16" cy="16" fill="url(#a)" r="16"/><g fill="#e62274" fill-rule="nonzero" transform="translate(8.327467 7.061333)"><path d="m7.24053333 8.40106667c.35413334.65706666-.45653333.86186666-.86186666.91306666-.60586667.0512-.70826667-.30293333-.60586667-.70826666.0512-.1536.1024-.30293334.25173333-.40533334.1024-.1024.25173334-.1536.40533334-.20053333.1536 0 .30293333 0 .45653333.1024.14933333.04693333.25173333.14933333.35413333.29866667zm2.2784-1.216c-.40533333 3.28960003 5.41439997 2.63253333 5.31626667 5.26506663.5589333-.7594666.8106667-2.7861333-.8618667-3.8485333-1.5189333-.9088-3.4944-.40106667-4.45439997-1.41653333zm3.34079997-1.26293334c-.0512-.0512-.1024-.0512-.1024-.1024.0512.0512.1024.0512.1024.1024z"/><path d="m14.2250667 8.34986667c-.0512-.1024-.1024-.20053334-.2005334-.30293334-.2005333-.25173333-.4565333-.45653333-.8106666-.55893333-.2005334-.0512-.4053334-.1024-.6570667-.1024h-.6058667c-.4565333-.0512-.9130666-.0512-1.3653333-.20053333-.1024-.0512-.2517333-.0512-.3541333-.1024-.0512 0-.1024-.0512-.1536-.0512s-.10240003-.0512-.15360003-.1024c-.20053334-.1024-.40533334-.25173334-.60586667-.45653334-.35413333-.35413333-.60586667-.70826666-.91306667-1.0624-.25173333-.35413333-.55893333-.70826666-.86186666-1.0624-.30293334-.30293333-.65706667-.60586666-1.0112-.81066666-.40533334-.20053334-.86186667-.30293334-1.2672-.35413334.45653333-.0512.91306666 0 1.36533333.1536.45653333.1536.86186667.45653334 1.216.75946667.20053333.20053333.45653333.45653333.60586667.65706667 1.46773333-.30293334 2.63253333-.0512 3.54133333.45653333.3029333.1536.5589333.35413333.8106667.55893333.0512.0512.1024.0512.1024.1024l.5589333.55893334c.5077333.7552.7594667 1.46773333.7594667 1.92zm-8.96000003-4.75733334c.35413333.0512.75946666.20053334 1.0112.50773334.25173333.30293333.35413333.65706666.40533333 1.0112.0512.25173333.1024.55893333.20053333.81066666.0512.1024.1536.25173334.20053334.35413334.0512.1024.1536.20053333.20053333.30293333v.1024c-.1536.1536-.45653333 0-.60586667-.1024-.25173333-.1024-.45653333-.25173333-.60586666-.45653333-.50773334-.60586667-.81066667-1.41653334-.81066667-2.2272.00426667-.09813334.00426667-.20053334.00426667-.30293334zm6.22506663 6.68159997c-.8106666 2.2272 2.8330667 3.7461334 1.4677334 6.0757334 1.4165333-.5589334 2.0736-2.3296 1.4677333-3.7461334-.5034667-1.216-1.9712-1.6725333-2.9354667-2.3296z"/><path d="m6.6816 13.2096c.20053333-.1536.45653333-.3029333.70826667-.4053333.25173333-.1024.50773333-.2005334.81066666-.2517334.55893334-.1024 1.0624-.1536 1.51893334-.3029333.20053333-.1024.40533333-.2005333.60586663-.3541333.1536-.1536.3029334-.3541334.4053334-.5589334.1024-.2517333.1024-.4565333.1024-.7082666 0-.2517334-.1024-.5077334-.1536-.7594667.2005333.2005333.3541333.4565333.4053333.7594667.1024.3029333.1024.5589333 0 .8618666-.0512.3029334-.2005333.5589334-.4565333.8106667-.2005334.2005333-.4565334.3541333-.7594667.4565333-.25173333.1024-.55893333.1536-.86186667.1536-.25173333 0-.55893333.0512-.81066666.0512-.50346667-.0554666-1.00693334.0469334-1.51466667.2474667zm5.1114667 3.9509333c-.1024.0512-.1536.1536-.2517334.2005334-.1024.0512-.2005333.1024-.3029333.1536-.2005333.1024-.4053333.1536-.6570667.1536-.60586663 0-1.06239997-.4565334-1.3141333-.96-.1536-.3541334-.30293333-.7082667-.50773333-1.0624-.30293334-.4565334-.81066667-.8618667-1.36533334-.8106667-.25173333.0512-.45653333.1536-.60586666.3541333-.35413334.5589334.1536 1.3141334.81066666 1.216.0512 0 .1024 0 .1536-.0512.0512 0 .1024-.0512.1536-.1024.1024-.0512.1536-.1536.20053334-.3029333.0512-.1024.0512-.2517333.0512-.3541333-.0512-.1024-.1024-.2517334-.20053334-.3029334.1024.0512.20053334.1536.25173334.3029334.0512.1536.0512.2517333.0512.4053333s-.1024.2517333-.20053334.4053333l-.1536.1536c-.0512.0512-.1536.0512-.20053333.1024-.1536.0512-.30293333.0512-.45653333.0512-.20053334-.0512-.40533334-.1024-.55893334-.2517333-.20053333-.1536-.35413333-.3541333-.50773333-.5589333-.20053333-.2005334-.45653333-.4053334-.70826667-.5077334-.20053333-.1024-.35413333-.1536-.55893333-.2005333-.1024 0-.20053333-.0512-.30293333-.0512-.0512 0-.25173334-.0512-.30293334-.0512.30293334-.3029333.65706667-.5589333 1.0112-.7594667.35413334-.2005333.75946667-.4053333 1.1648-.5077333.45653334-.1024.86186667-.1536 1.31413334-.1024.25173333.0512.45653333.1024.65706666.1536.20053334.1024.40533334.2005333.60586667.3541333s.30293333.3541334.40533333.6058667c.1024.2005333.1536.4053333.20053334.6570667.1536.6570666.1024 1.7194666.96000003 1.8730666h.3072c.1024 0 .2005333 0 .3029333-.0512.2005333-.0042666.4053333-.0554666.5546667-.1536zm-5.87093337-10.17599997c-.0512.1024-.1024.25173334-.1536.35413334-.1536.20053333-.35413333.30293333-.55893333.40533333-.1536.1024-.35413333.1536-.55893333.1536h-.1536c-.1536 0-.25173334.0512-.35413334.1536s-.20053333.20053333-.20053333.30293333c0 .0512-.0512.1536-.0512.20053334 0 .1536 0 .35413333-.0512.55893333-.0512.35413333-.1536.70826667-.30293333 1.0624-.20053334.4565333-.45653334.8106667-.40533334 1.3141333.0512.3029334.20053334.5589334.40533334.7594667.40533333.4053333 1.31413333.6058667 1.1136 1.6213333-.1024.6058667-1.1136 1.2672-2.53013334 1.4677334.1536 0-.20053333-.5589334-.20053333-.6058667-.1536-.2517333-.30293333-.4565333-.45653333-.7082667-.25173334-.5077333-.35413334-1.0624-.25173334-1.6213333s.50773334-1.0112.86186667-1.4677333c.40533333-.5077334.86186667-1.21600003.96-1.8730667 0-.1536.0512-.35413333.0512-.55893333.0512-.20053334.1024-.45653334.20053333-.65706667.0512-.1536.1536-.25173333.25173334-.35413333.0512-.0512.1024-.1536.1024-.20053334 0-.1024 0-.1536-.0512-.25173333l-2.22293334-4.05333333 3.2384 3.99786666c.0512.0512.1024.1024.1536.1024.0512.0512.1024.0512.1536.0512s.1024 0 .1536-.0512c.0512 0 .1024-.0512.1536-.1024s.0512-.1024.0512-.1536 0-.1024-.0512-.1536c-.20053333-.25173333-.45653333-.55893333-.65706666-.81066666l-.81066667-1.0112-1.62133333-2.02666667-2.12906667-2.8288 2.42773333 2.63253333 1.71946667 1.92426667.86186667.96c.30293333.30293333.55893333.65706667.86186666.96l.0512.0512v.1024c.0512.1024.0512.25173333 0 .35413333z"/><path d="m6.6816 16.4010667c-.1536-.1024-.30293333-.2517334-.40533333-.4053334.1024.1493334.256.3029334.40533333.4053334z"/></g><g transform="translate(18 18)"><circle cx="7" cy="7" fill="#fff" r="7"/><path d="m4.33525358 4.48531455-1.03525358-1.03525358v3.53450453c0 1.42956048.8611713 2.71834963 2.18191393 3.2654164 1.32074263.5470668 2.84098108.2446779 3.85184155-.76616545zm5.30905405 4.9985019 1.03525357 1.03525355v-3.5345045c0-1.42956048-.86117129-2.71834963-2.18191392-3.26541643-1.32074263-.54706679-2.84098108-.24467787-3.85184155.76616548z" fill="#48a3ff" fill-rule="nonzero"/></g></g></svg>

<?xml version="1.0" encoding="UTF-8"?>
<svg width="32px" height="32px" viewBox="0 0 32 32" version="1.1" xmlns="http://www.w3.org/2000/svg" xmlns:xlink="http://www.w3.org/1999/xlink">
    <title>UNI-ONT</title>
    <defs>
        <linearGradient x1="17.30611%" y1="13.5965335%" x2="89.8572114%" y2="79.4299643%" id="linearGradient-1">
            <stop stop-color="#FFFFFF" offset="0%"></stop>
            <stop stop-color="#FEC7E0" offset="100%"></stop>
        </linearGradient>
    </defs>
    <g id="Page-1" stroke="none" stroke-width="1" fill="none" fill-rule="evenodd">
        <g id="画板" transform="translate(-704.000000, -447.000000)">
            <g id="UNI-ONT" transform="translate(704.000000, 447.000000)">
                <circle id="椭圆形" fill="url(#linearGradient-1)" cx="16" cy="16" r="16"></circle>
                <g id="编组-3" transform="translate(8.327467, 7.061333)" fill="#E62274" fill-rule="nonzero">
                    <path d="M7.24053333,8.40106667 C7.59466667,9.05813333 6.784,9.26293333 6.37866667,9.31413333 C5.7728,9.36533333 5.6704,9.0112 5.7728,8.60586667 C5.824,8.45226667 5.8752,8.30293333 6.02453333,8.20053333 C6.12693333,8.09813333 6.27626667,8.04693333 6.42986667,8 C6.58346667,8 6.7328,8 6.8864,8.1024 C7.03573333,8.14933333 7.13813333,8.25173333 7.24053333,8.40106667 L7.24053333,8.40106667 Z M9.51893333,7.18506667 C9.1136,10.4746667 14.9333333,9.8176 14.8352,12.4501333 C15.3941333,11.6906667 15.6458667,9.664 13.9733333,8.6016 C12.4544,7.6928 10.4789333,8.20053333 9.51893333,7.18506667 L9.51893333,7.18506667 Z M12.8597333,5.92213333 C12.8085333,5.87093333 12.7573333,5.87093333 12.7573333,5.81973333 C12.8085333,5.87093333 12.8597333,5.87093333 12.8597333,5.92213333 Z" id="形状"></path>
                    <path d="M14.2250667,8.34986667 C14.1738667,8.24746667 14.1226667,8.14933333 14.0245333,8.04693333 C13.824,7.7952 13.568,7.5904 13.2138667,7.488 C13.0133333,7.4368 12.8085333,7.3856 12.5568,7.3856 L11.9509333,7.3856 C11.4944,7.3344 11.0378667,7.3344 10.5856,7.18506667 C10.4832,7.13386667 10.3338667,7.13386667 10.2314667,7.08266667 C10.1802667,7.08266667 10.1290667,7.03146667 10.0778667,7.03146667 C10.0266667,7.03146667 9.97546667,6.98026667 9.92426667,6.92906667 C9.72373333,6.82666667 9.51893333,6.67733333 9.3184,6.47253333 C8.96426667,6.1184 8.71253333,5.76426667 8.40533333,5.41013333 C8.1536,5.056 7.8464,4.70186667 7.54346667,4.34773333 C7.24053333,4.0448 6.8864,3.74186667 6.53226667,3.53706667 C6.12693333,3.33653333 5.6704,3.23413333 5.26506667,3.18293333 C5.7216,3.13173333 6.17813333,3.18293333 6.6304,3.33653333 C7.08693333,3.49013333 7.49226667,3.79306667 7.8464,4.096 C8.04693333,4.29653333 8.30293333,4.55253333 8.45226667,4.75306667 C9.92,4.45013333 11.0848,4.70186667 11.9936,5.2096 C12.2965333,5.3632 12.5525333,5.56373333 12.8042667,5.76853333 C12.8554667,5.81973333 12.9066667,5.81973333 12.9066667,5.87093333 L13.4656,6.42986667 C13.9733333,7.18506667 14.2250667,7.8976 14.2250667,8.34986667 Z M5.26506667,3.59253333 C5.6192,3.64373333 6.02453333,3.79306667 6.27626667,4.10026667 C6.528,4.4032 6.6304,4.75733333 6.6816,5.11146667 C6.7328,5.3632 6.784,5.6704 6.88213333,5.92213333 C6.93333333,6.02453333 7.03573333,6.17386667 7.08266667,6.27626667 C7.13386667,6.37866667 7.23626667,6.4768 7.2832,6.5792 L7.2832,6.6816 C7.1296,6.8352 6.82666667,6.6816 6.67733333,6.5792 C6.4256,6.4768 6.2208,6.32746667 6.07146667,6.12266667 C5.56373333,5.5168 5.2608,4.70613333 5.2608,3.89546667 C5.26506667,3.79733333 5.26506667,3.69493333 5.26506667,3.59253333 L5.26506667,3.59253333 Z M11.4901333,10.2741333 C10.6794667,12.5013333 14.3232,14.0202667 12.9578667,16.3498667 C14.3744,15.7909333 15.0314667,14.0202667 14.4256,12.6037333 C13.9221333,11.3877333 12.4544,10.9312 11.4901333,10.2741333 L11.4901333,10.2741333 Z" id="形状"></path>
                    <path d="M6.6816,13.2096 C6.88213333,13.056 7.13813333,12.9066667 7.38986667,12.8042667 C7.6416,12.7018667 7.8976,12.6037333 8.20053333,12.5525333 C8.75946667,12.4501333 9.26293333,12.3989333 9.71946667,12.2496 C9.92,12.1472 10.1248,12.0490667 10.3253333,11.8954667 C10.4789333,11.7418667 10.6282667,11.5413333 10.7306667,11.3365333 C10.8330667,11.0848 10.8330667,10.88 10.8330667,10.6282667 C10.8330667,10.3765333 10.7306667,10.1205333 10.6794667,9.8688 C10.88,10.0693333 11.0336,10.3253333 11.0848,10.6282667 C11.1872,10.9312 11.1872,11.1872 11.0848,11.4901333 C11.0336,11.7930667 10.8842667,12.0490667 10.6282667,12.3008 C10.4277333,12.5013333 10.1717333,12.6549333 9.8688,12.7573333 C9.61706667,12.8597333 9.30986667,12.9109333 9.00693333,12.9109333 C8.7552,12.9109333 8.448,12.9621333 8.19626667,12.9621333 C7.6928,12.9066667 7.18933333,13.0090667 6.6816,13.2096 L6.6816,13.2096 Z M11.7930667,17.1605333 C11.6906667,17.2117333 11.6394667,17.3141333 11.5413333,17.3610667 C11.4389333,17.4122667 11.3408,17.4634667 11.2384,17.5146667 C11.0378667,17.6170667 10.8330667,17.6682667 10.5813333,17.6682667 C9.97546667,17.6682667 9.51893333,17.2117333 9.2672,16.7082667 C9.1136,16.3541333 8.96426667,16 8.75946667,15.6458667 C8.45653333,15.1893333 7.9488,14.784 7.39413333,14.8352 C7.1424,14.8864 6.9376,14.9888 6.78826667,15.1893333 C6.43413333,15.7482667 6.94186667,16.5034667 7.59893333,16.4053333 C7.65013333,16.4053333 7.70133333,16.4053333 7.75253333,16.3541333 C7.80373333,16.3541333 7.85493333,16.3029333 7.90613333,16.2517333 C8.00853333,16.2005333 8.05973333,16.0981333 8.10666667,15.9488 C8.15786667,15.8464 8.15786667,15.6970667 8.15786667,15.5946667 C8.10666667,15.4922667 8.05546667,15.3429333 7.95733333,15.2917333 C8.05973333,15.3429333 8.15786667,15.4453333 8.20906667,15.5946667 C8.26026667,15.7482667 8.26026667,15.8464 8.26026667,16 C8.26026667,16.1536 8.15786667,16.2517333 8.05973333,16.4053333 L7.90613333,16.5589333 C7.85493333,16.6101333 7.75253333,16.6101333 7.7056,16.6613333 C7.552,16.7125333 7.40266667,16.7125333 7.24906667,16.7125333 C7.04853333,16.6613333 6.84373333,16.6101333 6.69013333,16.4608 C6.4896,16.3072 6.336,16.1066667 6.1824,15.9018667 C5.98186667,15.7013333 5.72586667,15.4965333 5.47413333,15.3941333 C5.2736,15.2917333 5.12,15.2405333 4.9152,15.1936 C4.8128,15.1936 4.71466667,15.1424 4.61226667,15.1424 C4.56106667,15.1424 4.36053333,15.0912 4.30933333,15.0912 C4.61226667,14.7882667 4.9664,14.5322667 5.32053333,14.3317333 C5.67466667,14.1312 6.08,13.9264 6.48533333,13.824 C6.94186667,13.7216 7.3472,13.6704 7.79946667,13.7216 C8.0512,13.7728 8.256,13.824 8.45653333,13.8752 C8.65706667,13.9776 8.86186667,14.0757333 9.0624,14.2293333 C9.26293333,14.3829333 9.36533333,14.5834667 9.46773333,14.8352 C9.57013333,15.0357333 9.62133333,15.2405333 9.66826667,15.4922667 C9.82186667,16.1493333 9.77066667,17.2117333 10.6282667,17.3653333 L10.9354667,17.3653333 C11.0378667,17.3653333 11.136,17.3653333 11.2384,17.3141333 C11.4389333,17.3098667 11.6437333,17.2586667 11.7930667,17.1605333 L11.7930667,17.1605333 Z M5.92213333,6.98453333 C5.87093333,7.08693333 5.81973333,7.23626667 5.76853333,7.33866667 C5.61493333,7.5392 5.4144,7.6416 5.2096,7.744 C5.056,7.8464 4.85546667,7.8976 4.65066667,7.8976 L4.49706667,7.8976 C4.34346667,7.8976 4.24533333,7.9488 4.14293333,8.0512 C4.04053333,8.1536 3.9424,8.25173333 3.9424,8.35413333 C3.9424,8.40533333 3.8912,8.50773333 3.8912,8.55466667 C3.8912,8.70826667 3.8912,8.9088 3.84,9.1136 C3.7888,9.46773333 3.6864,9.82186667 3.53706667,10.176 C3.33653333,10.6325333 3.08053333,10.9866667 3.13173333,11.4901333 C3.18293333,11.7930667 3.33226667,12.0490667 3.53706667,12.2496 C3.9424,12.6549333 4.8512,12.8554667 4.65066667,13.8709333 C4.54826667,14.4768 3.53706667,15.1381333 2.12053333,15.3386667 C2.27413333,15.3386667 1.92,14.7797333 1.92,14.7328 C1.7664,14.4810667 1.61706667,14.2762667 1.46346667,14.0245333 C1.21173333,13.5168 1.10933333,12.9621333 1.21173333,12.4032 C1.31413333,11.8442667 1.71946667,11.392 2.0736,10.9354667 C2.47893333,10.4277333 2.93546667,9.71946667 3.0336,9.0624 C3.0336,8.9088 3.0848,8.70826667 3.0848,8.50346667 C3.136,8.30293333 3.1872,8.04693333 3.28533333,7.8464 C3.33653333,7.6928 3.43893333,7.59466667 3.53706667,7.49226667 C3.58826667,7.44106667 3.63946667,7.33866667 3.63946667,7.29173333 C3.63946667,7.18933333 3.63946667,7.13813333 3.58826667,7.04 L1.36533333,2.98666667 L4.60373333,6.98453333 C4.65493333,7.03573333 4.70613333,7.08693333 4.75733333,7.08693333 C4.80853333,7.13813333 4.85973333,7.13813333 4.91093333,7.13813333 C4.96213333,7.13813333 5.01333333,7.13813333 5.06453333,7.08693333 C5.11573333,7.08693333 5.16693333,7.03573333 5.21813333,6.98453333 C5.26933333,6.93333333 5.26933333,6.88213333 5.26933333,6.83093333 C5.26933333,6.77973333 5.26933333,6.72853333 5.21813333,6.67733333 C5.0176,6.4256 4.7616,6.1184 4.56106667,5.86666667 L3.7504,4.85546667 L2.12906667,2.8288 L-2.65269288e-14,-3.18323146e-14 L2.42773333,2.63253333 L4.1472,4.5568 L5.00906667,5.5168 C5.312,5.81973333 5.568,6.17386667 5.87093333,6.4768 L5.92213333,6.528 L5.92213333,6.6304 C5.97333333,6.7328 5.97333333,6.88213333 5.92213333,6.98453333 Z" id="形状"></path>
                    <path d="M6.6816,16.4010667 C6.528,16.2986667 6.37866667,16.1493333 6.27626667,15.9957333 C6.37866667,16.1450667 6.53226667,16.2986667 6.6816,16.4010667 Z" id="路径"></path>
                </g>
                <g id="ONT备份" transform="translate(18.000000, 18.000000)">
                    <circle id="椭圆形" fill="#FFFFFF" cx="7" cy="7" r="7"></circle>
                    <path d="M4.33525358,4.48531455 L3.3,3.45006097 L3.3,6.9845655 C3.3,8.41412598 4.1611713,9.70291513 5.48191393,10.2499819 C6.80265656,10.7970487 8.32289501,10.4946598 9.33375548,9.48381645 L4.33525358,4.48531455 Z M9.64430763,9.48381645 L10.6795612,10.51907 L10.6795612,6.9845655 C10.6795612,5.55500502 9.81838991,4.26621587 8.49764728,3.71914907 C7.17690465,3.17208228 5.6566662,3.4744712 4.64580573,4.48531455 L9.64430763,9.48381645 Z" id="形状" fill="#48A3FF" fill-rule="nonzero"></path>
                </g>
            </g>
        </g>
    </g>
</svg>
